X: 35507
T: Rue Des Prés
R: barndance
M: 4/4
K: Gmajor
B2G2 GBAG|B2F2 FBBd|c3B AGAB|B2A2A2GA|
B2G2 GBAG|B2F2 FBBd|c3B AGAB|1 A6 GA:|2 A3B ABcd||
|:eg e4 dc|eg e4 fe|d3e d2 Bd|G6 EF|
G2G2 GEGA|B2F2F2 Bd|c3 B AGAB|1 A3 B ABcd:|2 A6 GA||

